X:2411
T:Untitled carval
C:Manx National Music, carval IX 
C:Traditional
B:Kiaull Vannin #411
M:3/4  
L:1/4
K:G 
G c B|d2 e|(dc) A|G3 |G c B|d2 B|A3 |
A B c|d2 e|(dB) A|(GE2) |D D G|B2 A|G3|| 

